X:1876
T:Fanny Powers
O:england
C:Turlough O'Carolan
M:3/4
L:1/4
K:G
D |: G2D | G>AB | c2B | A2G | GFE | DFD | F2G | A2c |
B>AG | Bcd | e2A | A>BG | GFE | DGF | G3 |1 G2D :|2 G2d ||
|: dB/c/d | dB/c/d | G>BG | GBd | ec/d/e | ec/d/e | A>cA | AcA |
B>cd | efg | f>ga | d2c | B>AG | DGF | G3 |1 G2d :|2 G2 ||


